Gruvbox-Material-Icons/actions/16/draw-brush.svg

<svg xmlns="http://www.w3.org/2000/svg" width="16" height="16" viewBox="0 0 16 16">
 <defs>
  <style id="current-color-scheme" type="text/css">
   .ColorScheme-Text { color:#ebdbb2; } .ColorScheme-Highlight { color:#458588; }
  </style>
 </defs>
 <path style="fill:currentColor" class="ColorScheme-Text" d="M 14.574219 1.0058594 C 13.520146 0.87298937 10.770478 2.75775 8.0605469 5.46875 C 6.8520776 6.67795 5.8032796 7.8729 5 9 C 5.9414561 9.29995 6.7002076 10.0582 7 11 C 8.1266713 10.19649 9.3243336 9.1522594 10.533203 7.9433594 C 13.607725 4.8675594 15.546263 1.8205187 14.863281 1.1367188 C 14.793083 1.0660188 14.697306 1.0216494 14.574219 1.0058594 z M 4.5 10.330078 L 4.5 10.332031 C 1.0001889 11.270271 3.6248533 13.4865 1 15 C 4.4998111 15 6.25 13.248178 6.25 12.080078 C 6.25 11.497798 6.3093545 10.426978 4.5 10.330078 z"/>
</svg>

<svg width="16" height="16" viewBox="0 0 16 16" xmlns="http://www.w3.org/2000/svg">
  <defs>
    <style id="current-color-scheme" type="text/css">.ColorScheme-Text { color:#ebdbb2; } .ColorScheme-Highlight { color:#458588; }</style>
  </defs>
  <path class="ColorScheme-Text" d="m14.57 1.006c-1.054-0.1329-3.804 1.752-6.514 4.463-1.208 1.209-2.257 2.404-3.061 3.531 0.9415 0.3 1.7 1.058 2 2 1.127-0.8035 2.324-1.848 3.533-3.057 3.075-3.076 5.013-6.123 4.33-6.807-0.0702-0.0707-0.166-0.1151-0.2891-0.1309zm-10.07 9.324v0.001953c-3.5 0.9382-0.8751 3.154-3.5 4.668 3.5 0 5.25-1.752 5.25-2.92 0-0.5823 0.05935-1.653-1.75-1.75z" fill="currentColor"/>
</svg>
